X: 373
T:Si j'ay perdu mon amy
N: Derived from Jos2832-Si_jay_perdu.krn
C: Josquin des Prez
%%abc-version 2.0
%%abcx-abcm2ps-target-version 5.9.1 (29 Sep 2008)
%%abc-creator hum2abc beta
%%abcx-conversion-date 2019/02/12 16:15:54
%%abc-edited-by Jesse Rodin
%%abc-edited-by Jesse Rodin; Victoria Chang 2011/10/21
%%abcx-initial-encoding-date 2011/10/21/
%%humdrum-veritas 1582101213
%%humdrum-veritas-data 2757577658
%%linebreak <none>
%%barnumbers 0
L: 1/4
M: 4/2
Q: 1/2=120
%%staves [1 2 3 4]
V: 1 clef=treble
V: 2 clef=treble-8
V: 3 clef=treble-8
V: 4 clef=bass
K: F
[V:1] z8 | 
[V:2] z8 | 
[V:3] z8 | 
[V:4] G,3G,F,2B,2 | 
[V:1] z8 | 
[V:2] z8 | 
[V:3] z4G3G | 
[V:4] B,2A,2B,4 | 
[V:1] z8 | 
[V:2] z8 | 
[V:3] F2B2B2A2 | 
[V:4] B,,4C,4 | 
[V:1] z8 | 
[V:2] d3dc2f2 | 
[V:3] B4z2A2 | 
[V:4] B,,C,D,E,F,2D,2- | 
[V:1] G3GF2B2 | 
[V:2] f2e2f4- | 
[V:3] B2c2A2B2 | 
[V:4] D,2C,2D,2B,,2 | 
[V:1] B2A2B4- | 
[V:2] f4z4 | 
[V:3] c4B4- | 
[V:4] F,4B,,4 | 
[V:1] B4z4 | 
[V:2] f3ed2c2 | 
[V:3] B4z4 | 
[V:4] z4B,3A, | 
[V:1] z8 | 
[V:2] defde2d2 | 
[V:3] z8 | 
[V:4] G,2F,2G,A,B,G, | 
[V:1] z4B3A | 
[V:2] c2d2G3A | 
[V:3] z8 | 
[V:4] A,2G,2z4 | 
[V:1] G2F2GABG | 
[V:2] Bcd4G2 | 
[V:3] z2B3AG2 | 
[V:4] z2D,2_E,4 | 
[V:1] A2G4^F2 | 
[V:2] d2c2d4- | 
[V:3] F2GABGA2 | 
[V:4] D,2_E,2D,4 | 
[V:1] G8 | 
[V:2] d2B3cde | 
[V:3] G8 | 
[V:4] G,,4G,3G, | 
[V:1] z8 | 
[V:2] f2d2c4 | 
[V:3] z8 | 
[V:4] F,2B,2B,2A,2 | 
[V:1] z8 | 
[V:2] B4z4 | 
[V:3] G3GF2B2 | 
[V:4] B,4B,,4 | 
[V:1] z8 | 
[V:2] z4d3d | 
[V:3] B2A2B4 | 
[V:4] C,4B,,C,D,E, | 
[V:1] z4G3G | 
[V:2] c2f2f2e2 | 
[V:3] z2A2B2c2 | 
[V:4] F,2D,4C,2 | 
[V:1] F2B2B2A2 | 
[V:2] f8 | 
[V:3] A2B2c4 | 
[V:4] D,2B,,2F,4 | 
[V:1] B8 | 
[V:2] z4f3e | 
[V:3] B8 | 
[V:4] B,,4z4 | 
[V:1] z8 | 
[V:2] d2c2defd | 
[V:3] z8 | 
[V:4] B,3A,G,2F,2 | 
[V:1] z8 | 
[V:2] e2d2c2d2 | 
[V:3] z8 | 
[V:4] G,A,B,G,A,2G,2 | 
[V:1] B3AG2F2 | 
[V:2] G4z2B2- | 
[V:3] z8 | 
[V:4] z8 | 
[V:1] GABGA2D2- | 
[V:2] BAG2F2B2- | 
[V:3] z8 | 
[V:4] B,4A,2B,2 | 
[V:1] DEFGEDA2- | 
[V:2] Bcd2G2d2- | 
[V:3] B3AG2F2 | 
[V:4] B,,4C,2D,2 | 
[V:1] A2G4^F2 | 
[V:2] d2c2d4 | 
[V:3] GABGA4 | 
[V:4] _E,4D,4 | 
[V:1] G8 | 
[V:2] _e2d4cB | 
[V:3] G8 | 
[V:4] G,,4G,2G,2 | 
[V:1] z8 | 
[V:2] A4z4 | 
[V:3] z4G2G2 | 
[V:4] F,2F,2G,2G,2 | 
[V:1] z4G2G2 | 
[V:2] z8 | 
[V:3] F2F2G2G2 | 
[V:4] D,4z4 | 
[V:1] F2F2G2G2 | 
[V:2] d2d2c2c2 | 
[V:3] D4z4 | 
[V:4] z8 | 
[V:1] D8- | 
[V:2] d2d2A4 | 
[V:3] z8 | 
[V:4] G,2G,2F,2F,2 | 
[V:1] D4z4 | 
[V:2] z8 | 
[V:3] G2G2F2F2 | 
[V:4] G,2G,2D,4 | 
[V:1] G2G2F2F2 | 
[V:2] z4d2d2 | 
[V:3] G2G2D4 | 
[V:4] z8 | 
[V:1] G2G2D4- | 
[V:2] c2c2d2d2 | 
[V:3] z8 | 
[V:4] z4G,2G,2 | 
[V:1] D8 | 
[V:2] A2A2B3A | 
[V:3] z8 | 
[V:4] F,2F,2G,2G,2 | 
[V:1] z4B3B | 
[V:2] F4f3f | 
[V:3] z4d3d | 
[V:4] D,4B,,3B,, | 
[V:1] B2B2A2G2 | 
[V:2] f2f2f2e2 | 
[V:3] d2d2c2B2 | 
[V:4] B,,2B,,2F,2G,2 | 
[V:1] A4cBAG | 
[V:2] f4cccc | 
[V:3] c4A3A | 
[V:4] F,4F,3F, | 
[V:1] cBAGFGAB | 
[V:2] c2c2AAAd | 
[V:3] A2A2cBAG | 
[V:4] F,2F,2F,F,F,G, | 
[V:1] A2G2B3B | 
[V:2] d2d2g3g | 
[V:3] F2G2d3d | 
[V:4] D,2G,,2G,3G, | 
[V:1] B2B2A2G2 | 
[V:2] g2f2f2e2 | 
[V:3] d2d2c2B2 | 
[V:4] G,2B,2F,2G,2 | 
[V:1] A4cBAG | 
[V:2] f4eeee | 
[V:3] c4c3B | 
[V:4] F,4C,C,C,C, | 
[V:1] F2G2G2^F2 | 
[V:2] d2c2d2d2 | 
[V:3] A2G2A2A2 | 
[V:4] D,2_E,2D,2D,2 | 
[V:1] G2A2cBAG | 
[V:2] d2A2GGGG | 
[V:3] G2c2_edcB | 
[V:4] G,,2F,2C,C,C,C, | 
[V:1] F2G2G2^F2 | 
[V:2] d2c2d2d2 | 
[V:3] A2G2A2A2 | 
[V:4] D,2_E,2D,2D,2 | 
[V:1] G8 |]  
[V:2] d8 |]  
[V:3] G8 |]  
[V:4] G,,8 |]  



